brandFactory_export/1.Light/Base de datos_1Light.svg

<?xml version="1.0" encoding="UTF-8"?>
<svg width="24px" height="24px" viewBox="0 0 24 24" version="1.1" xmlns="http://www.w3.org/2000/svg" xmlns:xlink="http://www.w3.org/1999/xlink">
    <title>1.Light/Base de datos_1Light</title>
    <g id="Symbols" stroke="none" stroke-width="1" fill="none" fill-rule="evenodd">
        <g id="1.Light/Base-de-datos_1Light" fill="#5CB615" fill-rule="nonzero">
            <path d="M19.707563,20.2487395 C20.3462185,20.2487395 20.594958,19.9966387 20.594958,19.3478992 C20.594958,18.702521 20.3462185,18.4470588 19.707563,18.4470588 C19.0689076,18.4470588 18.8201681,18.6991597 18.8201681,19.3478992 C18.8168067,19.9966387 19.0655462,20.2487395 19.707563,20.2487395 Z M19.707563,17.4420168 C20.887395,17.4420168 21.5932773,18.1546218 21.5932773,19.3512605 C21.5932773,20.5445378 20.8907563,21.2605042 19.707563,21.2605042 C18.5277311,21.2605042 17.8251981,20.5478992 17.8251981,19.3512605 C17.8218487,18.1579832 18.5243697,17.4420168 19.707563,17.4420168 Z M19.707563,12.712605 C20.3462185,12.712605 20.594958,12.4605042 20.594958,11.8117647 C20.594958,11.1663866 20.3462185,10.9109244 19.707563,10.9109244 C19.0689076,10.9109244 18.8201681,11.1630252 18.8201681,11.8117647 C18.8168067,12.4605042 19.0655462,12.712605 19.707563,12.712605 Z M19.707563,9.90252101 C20.887395,9.90252101 21.5932773,10.6151261 21.5932773,11.8117647 C21.5932773,13.005042 20.8907563,13.7210084 19.707563,13.7210084 C18.5277311,13.7210084 17.8251981,13.0084034 17.8251981,11.8117647 C17.8218487,10.6184874 18.5243697,9.90252101 19.707563,9.90252101 Z M19.7277311,3.37478992 C19.0890756,3.37478992 18.8403361,3.62689076 18.8403361,4.27563025 C18.8403361,4.9210084 19.0890756,5.17310924 19.7277311,5.17310924 C20.3663866,5.17310924 20.6184874,4.9210084 20.6184874,4.27563025 C20.6184874,3.63361345 20.3596639,3.37478992 19.7277311,3.37478992 Z M19.7277311,6.18151261 C18.5478992,6.18151261 17.8453782,5.46890756 17.8453782,4.27563025 C17.8453782,3.08235294 18.5478992,2.36638655 19.7277311,2.36638655 C20.907563,2.36638655 21.6134454,3.0789916 21.6134454,4.27563025 C21.6134454,5.46890756 20.907563,6.18151261 19.7277311,6.18151261 L19.7277311,6.18151261 Z M22.6218487,22.0840336 L22.6285714,16.6151261 C22.6285714,16.3226891 22.3932773,16.087395 22.1042017,16.0840336 L1.52941176,16.0840336 C1.23697479,16.0840336 1.00168067,16.3226891 1.00504202,16.6151261 L0.994957983,22.0840336 C0.994957983,22.3764706 1.2302521,22.6151261 1.51932773,22.6151261 L22.0941176,22.6151261 C22.3865546,22.6151261 22.6218487,22.3764706 22.6218487,22.0840336 Z M1.00168067,1.5394958 L0.994957983,7.00840336 C0.994957983,7.30084034 1.2302521,7.5394958 1.51932773,7.5394958 L22.0941176,7.5394958 C22.3865546,7.5394958 22.6218487,7.30084034 22.6184874,7.00840336 L22.6252101,1.5394958 C22.6252101,1.24705882 22.389916,1.00840336 22.1008403,1.00840336 L1.52941176,1.00840336 C1.23697479,1.00840336 1.00168067,1.24705882 1.00168067,1.5394958 Z M1.51932773,15.0789916 L22.0941176,15.0789916 C22.3865546,15.0756303 22.6218487,14.8403361 22.6184874,14.5478992 L22.6252101,9.0789916 C22.6252101,8.78655462 22.389916,8.54789916 22.1008403,8.54789916 L1.52941176,8.54789916 C1.23697479,8.5512605 1.00168067,8.78655462 1.00504202,9.0789916 L0.998283756,14.5478992 C0.994957983,14.8369748 1.2302521,15.0789916 1.51932773,15.0789916 Z M23.6235294,9.0789916 L23.6168067,14.5478992 C23.6168067,14.9445378 23.4621849,15.3042017 23.2168067,15.5798319 C23.4655462,15.8521008 23.6235294,16.2184874 23.6235294,16.6184874 L23.6168067,22.0840336 C23.6168067,22.9310924 22.9344538,23.6235294 22.0941176,23.6235294 L1.51932773,23.6235294 C0.675630252,23.6168067 -0.00336134454,22.9277311 -1.24265064e-05,22.0840336 L0.00672268908,16.6151261 C0.00672268908,16.2184874 0.161344538,15.8588235 0.406722689,15.5865546 C0.14789916,15.3008403 -1.24265064e-05,14.9310924 -1.24265064e-05,14.5445378 L0.00672268908,9.07563025 C0.00672268908,8.67563025 0.161344538,8.31932773 0.406722689,8.04369748 C0.14789916,7.76470588 -1.24265064e-05,7.39159664 -1.24265064e-05,7.00840336 L0.00672268908,1.5394958 C0.00672268908,0.692436975 0.68907563,0 1.52941176,0 L22.1042017,0 C22.9411765,0 23.6235294,0.692436975 23.6235294,1.5394958 L23.6168067,7.00840336 C23.6168067,7.40504202 23.4621849,7.76470588 23.2168067,8.04033613 C23.4655462,8.31260504 23.6235294,8.67563025 23.6235294,9.0789916 Z M3.15966387,4.77647059 C2.88403361,4.77647059 2.66218487,4.5512605 2.66218487,4.27226891 C2.66218487,3.99327731 2.88403361,3.76806723 3.15966387,3.76806723 L10.0672269,3.76806723 C10.3428571,3.76806723 10.5647436,3.99327731 10.5647436,4.27226891 C10.5680672,4.54789916 10.3462185,4.77310924 10.0672269,4.77647059 L3.15966387,4.77647059 Z M10.0672269,11.307563 C10.3428571,11.307563 10.5647059,11.5327731 10.5647059,11.8117647 C10.5647059,12.087395 10.3428571,12.312605 10.0672269,12.3159664 L3.15966387,12.3159664 C2.88403361,12.3159664 2.66218487,12.0907563 2.66218487,11.8151261 C2.66218487,11.5361345 2.88403361,11.3109244 3.15966387,11.3109244 C3.15966387,11.307563 10.0672269,11.307563 10.0672269,11.307563 Z M10.0672269,18.8941176 C10.3428571,18.8941176 10.5647059,19.1193277 10.5647059,19.3983193 C10.5647059,19.6739496 10.3428571,19.8991597 10.0672269,19.902521 L3.15966387,19.902521 C2.88403361,19.902521 2.66218487,19.6773109 2.66218487,19.4016807 C2.66218487,19.1226891 2.88403361,18.897479 3.15966387,18.897479 L10.0672269,18.897479 L10.0672269,18.8941176 Z" id="Base-de-datos_1Light"></path>
        </g>
    </g>
</svg>

<svg width="24" height="24" viewBox="0 0 24 24" xmlns="http://www.w3.org/2000/svg"><path d="M19.708 20.249c.638 0 .887-.252.887-.901 0-.645-.249-.9-.887-.9-.64 0-.888.251-.888.9-.003.649.246.9.888.9zm0-2.807c1.18 0 1.885.713 1.885 1.91 0 1.193-.702 1.909-1.885 1.909-1.18 0-1.883-.713-1.883-1.91-.003-1.193.7-1.909 1.883-1.909zm0-4.73c.638 0 .887-.251.887-.9 0-.646-.249-.901-.887-.901-.64 0-.888.252-.888.9-.003.65.246.902.888.902zm0-2.81c1.18 0 1.885.713 1.885 1.91 0 1.193-.702 1.909-1.885 1.909-1.18 0-1.883-.713-1.883-1.91-.003-1.193.7-1.908 1.883-1.908zm.02-6.527c-.639 0-.888.252-.888.9 0 .646.25.898.888.898s.89-.252.89-.897c0-.642-.258-.901-.89-.901zm0 2.807c-1.18 0-1.883-.713-1.883-1.906 0-1.194.703-1.91 1.883-1.91 1.18 0 1.885.713 1.885 1.91 0 1.193-.705 1.906-1.885 1.906zm2.894 15.902l.007-5.469a.53.53 0 00-.525-.531H1.53a.524.524 0 00-.524.531l-.01 5.469c0 .292.235.531.524.531h20.575a.53.53 0 00.528-.531zM1.002 1.539L.995 7.01c0 .292.235.53.524.53h20.575a.524.524 0 00.524-.53l.007-5.47a.529.529 0 00-.524-.53H1.529a.53.53 0 00-.527.53zm.517 13.54h20.575a.526.526 0 00.524-.531l.007-5.469a.529.529 0 00-.524-.531H1.529a.526.526 0 00-.524.531l-.007 5.469a.526.526 0 00.521.531zm22.105-6l-.007 5.469c0 .397-.155.756-.4 1.032.249.272.407.638.407 1.038l-.007 5.466c0 .847-.683 1.54-1.523 1.54H1.52A1.533 1.533 0 010 22.084l.007-5.469c0-.397.154-.756.4-1.028A1.554 1.554 0 010 14.545l.007-5.47c0-.4.154-.756.4-1.031A1.53 1.53 0 010 7.008L.007 1.54C.007.692.689 0 1.529 0h20.575c.837 0 1.52.692 1.52 1.54l-.007 5.468c0 .397-.155.757-.4 1.032.249.273.407.636.407 1.039zM3.16 4.776a.5.5 0 01-.498-.504.5.5 0 01.498-.504h6.907a.5.5 0 01.498.504.5.5 0 01-.498.504H3.16zm6.907 6.532a.504.504 0 010 1.008H3.16a.5.5 0 01-.498-.5.5.5 0 01.498-.505c0-.003 6.907-.003 6.907-.003zm0 7.586a.504.504 0 010 1.008H3.16a.5.5 0 01-.498-.5.5.5 0 01.498-.505h6.907v-.003z" fill="#5CB615" fill-rule="nonzero"/></svg>
